X:1
T:[ID 2-10]
T:[ID 2-10]
T:Bezeichnung standardisiert: Menuett Menuet
T:Urheber unbekannt Datum in der hier transkribierten schriftlichen Quelle: 1767
C:Urheber unbekannt
C:Datum in der hier transkribierten schriftlichen Quelle: 1767
L:1/8
M:3/4
K:D
V:1 treble 
V:1
 d'2 d'2 d'2 | d2 d2 d2 | e4 g/f/e | f2 d4 | d2 (3agf ge | f2 (3agf ge | fa g2 f2 |{f} e6 :: %8
 d2 (3agf ga | b2 g4 | e2 (3gfe fg | a2 f4 | DFAFGA | B2 G4 | E2 (3GFE FG | A2 F4 | a2 a2 a2 | %17
 b4 c'2 | (3d'c'b agfe |{e} d6 :| %20

